img/ui/power-tool/active.svg

<svg width="100" height="100" viewBox="0 0 100 100" fill="none" xmlns="http://www.w3.org/2000/svg">
<rect x="10" y="10" width="80" height="80" rx="17" fill="#D3D1BB" stroke="#616353" stroke-width="4"/>
<path d="M50 20C52.2091 20 54 21.7909 54 24V48C54 50.2091 52.2091 52 50 52C47.7909 52 46 50.2091 46 48V24C46 21.7909 47.7909 20 50 20ZM20 50C20 43.9194 21.8069 38.267 24.9126 33.5429C25.9146 32.0188 28.286 31.7423 29.9659 33.4223C31.4496 34.9059 31.621 37.5908 30.368 40.0615C28.8529 43.049 28 46.4278 28 50C28 62.1503 37.8497 72 50 72C62.1503 72 72 62.1503 72 50C72 46.2707 71.0704 42.7525 69.4287 39.6704C68.1077 37.1906 68.2545 34.4557 69.7541 32.9561C71.4007 31.3095 73.7279 31.5533 74.7441 33.0322C78.0597 37.8574 80 43.6991 80 50C80 66.5686 66.5685 80 50 80C33.4315 80 20 66.5686 20 50Z" stroke="#616353" stroke-width="4"/>
</svg>

<svg width="100" height="100" fill="none" xmlns="http://www.w3.org/2000/svg"><rect x="10" y="10" width="80" height="80" rx="17" fill="#D3D1BB" stroke="#616353" stroke-width="4"/><path d="M50 20a4 4 0 0 1 4 4v24a4 4 0 0 1-8 0V24a4 4 0 0 1 4-4ZM20 50a29.85 29.85 0 0 1 4.913-16.457c1.002-1.524 3.373-1.8 5.053-.12 1.484 1.483 1.655 4.168.402 6.639A21.916 21.916 0 0 0 28 50c0 12.15 9.85 22 22 22s22-9.85 22-22c0-3.73-.93-7.248-2.571-10.33-1.321-2.48-1.175-5.214.325-6.714 1.647-1.647 3.974-1.403 4.99.076A29.852 29.852 0 0 1 80 50c0 16.569-13.431 30-30 30-16.569 0-30-13.431-30-30Z" stroke="#616353" stroke-width="4"/></svg>
